images/content/johnson-solids/triaugmented-triangular-prism.svg

<?xml version="1.0" encoding="UTF-8"?>
<svg xmlns="http://www.w3.org/2000/svg" xmlns:xlink="http://www.w3.org/1999/xlink" width="221pt" height="195pt" viewBox="0 0 221 195" version="1.2">
<g id="surface1">
<path style=" stroke:none;fill-rule:nonzero;fill:rgb(92.96875%,56.25%,14.892578%);fill-opacity:1;" d="M 44.582031 68.429688 L 5.054688 176.441406 L 55.738281 97.375 "/>
<path style="fill:none;stroke-width:5.06092;stroke-linecap:round;stroke-linejoin:round;stroke:rgb(0%,0%,0%);stroke-opacity:1;stroke-miterlimit:10;" d="M 445.820312 1265.703125 L 50.546875 185.585938 L 557.382812 976.25 Z M 445.820312 1265.703125 " transform="matrix(0.1,0,0,-0.1,0,195)"/>
<path style=" stroke:none;fill-rule:nonzero;fill:rgb(80.46875%,75%,80.271912%);fill-opacity:1;" d="M 110.261719 192.058594 L 5.054688 176.441406 L 55.738281 97.375 "/>
<path style="fill:none;stroke-width:5.06092;stroke-linecap:round;stroke-linejoin:round;stroke:rgb(0%,0%,0%);stroke-opacity:1;stroke-miterlimit:10;" d="M 1102.617188 29.414062 L 50.546875 185.585938 L 557.382812 976.25 Z M 1102.617188 29.414062 " transform="matrix(0.1,0,0,-0.1,0,195)"/>
<path style=" stroke:none;fill-rule:nonzero;fill:rgb(70.117188%,61.131287%,75.193787%);fill-opacity:1;" d="M 55.738281 97.375 L 110.261719 192.058594 L 164.859375 96.964844 "/>
<path style="fill:none;stroke-width:5.06092;stroke-linecap:round;stroke-linejoin:round;stroke:rgb(0%,0%,0%);stroke-opacity:1;stroke-miterlimit:10;" d="M 557.382812 976.25 L 1102.617188 29.414062 L 1648.59375 980.351562 Z M 557.382812 976.25 " transform="matrix(0.1,0,0,-0.1,0,195)"/>
<path style=" stroke:none;fill-rule:nonzero;fill:rgb(89.256287%,47.093201%,11.302185%);fill-opacity:1;" d="M 55.738281 97.375 L 44.582031 68.429688 L 109.335938 5.214844 "/>
<path style="fill:none;stroke-width:5.06092;stroke-linecap:round;stroke-linejoin:round;stroke:rgb(0%,0%,0%);stroke-opacity:1;stroke-miterlimit:10;" d="M 557.382812 976.25 L 445.820312 1265.703125 L 1093.359375 1897.851562 Z M 557.382812 976.25 " transform="matrix(0.1,0,0,-0.1,0,195)"/>
<path style=" stroke:none;fill-rule:nonzero;fill:rgb(69.921875%,50.976562%,62.693787%);fill-opacity:1;" d="M 164.859375 96.964844 L 55.738281 97.375 L 109.335938 5.214844 "/>
<path style="fill:none;stroke-width:5.06092;stroke-linecap:round;stroke-linejoin:round;stroke:rgb(0%,0%,0%);stroke-opacity:1;stroke-miterlimit:10;" d="M 1648.59375 980.351562 L 557.382812 976.25 L 1093.359375 1897.851562 Z M 1648.59375 980.351562 " transform="matrix(0.1,0,0,-0.1,0,195)"/>
<path style=" stroke:none;fill-rule:nonzero;fill:rgb(0%,0%,8.909607%);fill-opacity:1;" d="M 172.160156 67.867188 L 214.089844 176.019531 L 164.859375 96.964844 "/>
<path style="fill:none;stroke-width:5.06092;stroke-linecap:round;stroke-linejoin:round;stroke:rgb(0%,0%,0%);stroke-opacity:1;stroke-miterlimit:10;" d="M 1721.601562 1271.328125 L 2140.898438 189.804688 L 1648.59375 980.351562 Z M 1721.601562 1271.328125 " transform="matrix(0.1,0,0,-0.1,0,195)"/>
<path style=" stroke:none;fill-rule:nonzero;fill:rgb(56.054688%,55.271912%,80.076599%);fill-opacity:1;" d="M 110.261719 192.058594 L 214.089844 176.019531 L 164.859375 96.964844 "/>
<path style="fill:none;stroke-width:5.06092;stroke-linecap:round;stroke-linejoin:round;stroke:rgb(0%,0%,0%);stroke-opacity:1;stroke-miterlimit:10;" d="M 1102.617188 29.414062 L 2140.898438 189.804688 L 1648.59375 980.351562 Z M 1102.617188 29.414062 " transform="matrix(0.1,0,0,-0.1,0,195)"/>
<path style=" stroke:none;fill-rule:nonzero;fill:rgb(0%,0%,6.098938%);fill-opacity:1;" d="M 172.160156 67.867188 L 164.859375 96.964844 L 109.335938 5.214844 "/>
<path style="fill:none;stroke-width:5.06092;stroke-linecap:round;stroke-linejoin:round;stroke:rgb(0%,0%,0%);stroke-opacity:1;stroke-miterlimit:10;" d="M 1721.601562 1271.328125 L 1648.59375 980.351562 L 1093.359375 1897.851562 Z M 1721.601562 1271.328125 " transform="matrix(0.1,0,0,-0.1,0,195)"/>
<path style=" stroke:none;fill-rule:nonzero;fill:rgb(18.188477%,0%,0%);fill-opacity:1;" d="M 108.246094 178.621094 L 5.054688 176.441406 L 110.261719 192.058594 "/>
<path style="fill:none;stroke-width:5.06092;stroke-linecap:round;stroke-linejoin:round;stroke:rgb(0%,0%,0%);stroke-opacity:1;stroke-miterlimit:10;" d="M 1082.460938 163.789062 L 50.546875 185.585938 L 1102.617188 29.414062 Z M 1082.460938 163.789062 " transform="matrix(0.1,0,0,-0.1,0,195)"/>
<path style=" stroke:none;fill-rule:nonzero;fill:rgb(31.297302%,0%,0%);fill-opacity:1;" d="M 108.246094 178.621094 L 214.089844 176.019531 L 110.261719 192.058594 "/>
<path style="fill:none;stroke-width:5.06092;stroke-linecap:round;stroke-linejoin:round;stroke:rgb(0%,0%,0%);stroke-opacity:1;stroke-miterlimit:10;" d="M 1082.460938 163.789062 L 2140.898438 189.804688 L 1102.617188 29.414062 Z M 1082.460938 163.789062 " transform="matrix(0.1,0,0,-0.1,0,195)"/>
<path style=" stroke:none;fill-rule:nonzero;fill:rgb(65.818787%,73.826599%,91.014099%);fill-opacity:1;" d="M 44.582031 68.429688 L 172.160156 67.867188 L 109.335938 5.214844 "/>
<path style="fill:none;stroke-width:5.06092;stroke-linecap:round;stroke-linejoin:round;stroke:rgb(0%,0%,0%);stroke-opacity:1;stroke-miterlimit:10;" d="M 445.820312 1265.703125 L 1721.601562 1271.328125 L 1093.359375 1897.851562 Z M 445.820312 1265.703125 " transform="matrix(0.1,0,0,-0.1,0,195)"/>
<path style=" stroke:none;fill-rule:nonzero;fill:rgb(55.46875%,43.309021%,66.796875%);fill-opacity:1;" d="M 108.246094 178.621094 L 5.054688 176.441406 L 44.582031 68.429688 "/>
<path style="fill:none;stroke-width:5.06092;stroke-linecap:round;stroke-linejoin:round;stroke:rgb(0%,0%,0%);stroke-opacity:1;stroke-miterlimit:10;" d="M 1082.460938 163.789062 L 50.546875 185.585938 L 445.820312 1265.703125 Z M 1082.460938 163.789062 " transform="matrix(0.1,0,0,-0.1,0,195)"/>
<path style=" stroke:none;fill-rule:nonzero;fill:rgb(82.226562%,65.234375%,67.1875%);fill-opacity:1;" d="M 108.246094 178.621094 L 214.089844 176.019531 L 172.160156 67.867188 "/>
<path style="fill:none;stroke-width:5.06092;stroke-linecap:round;stroke-linejoin:round;stroke:rgb(0%,0%,0%);stroke-opacity:1;stroke-miterlimit:10;" d="M 1082.460938 163.789062 L 2140.898438 189.804688 L 1721.601562 1271.328125 Z M 1082.460938 163.789062 " transform="matrix(0.1,0,0,-0.1,0,195)"/>
<path style=" stroke:none;fill-rule:nonzero;fill:rgb(70.117188%,61.521912%,75.976562%);fill-opacity:1;" d="M 44.582031 68.429688 L 108.246094 178.621094 L 172.160156 67.867188 "/>
<path style="fill:none;stroke-width:5.06092;stroke-linecap:round;stroke-linejoin:round;stroke:rgb(0%,0%,0%);stroke-opacity:1;stroke-miterlimit:10;" d="M 445.820312 1265.703125 L 1082.460938 163.789062 L 1721.601562 1271.328125 Z M 445.820312 1265.703125 " transform="matrix(0.1,0,0,-0.1,0,195)"/>
</g>
</svg>

<svg xmlns="http://www.w3.org/2000/svg" width="221pt" height="260" viewBox="0 0 221 195" version="1.2"><path style="stroke:none;fill-rule:nonzero;fill:#ed8f26;fill-opacity:1" d="M44.582 68.43 5.055 176.44l50.683-79.066"/><path style="fill:none;stroke-width:5.06092;stroke-linecap:round;stroke-linejoin:round;stroke:#000;stroke-opacity:1;stroke-miterlimit:10" d="M445.82 1265.703 50.547 185.586 557.383 976.25Zm0 0" transform="matrix(.1 0 0 -.1 0 195)"/><path style="stroke:none;fill-rule:nonzero;fill:#cdbfcd;fill-opacity:1" d="M110.262 192.059 5.055 176.44l50.683-79.066"/><path style="fill:none;stroke-width:5.06092;stroke-linecap:round;stroke-linejoin:round;stroke:#000;stroke-opacity:1;stroke-miterlimit:10" d="M1102.617 29.414 50.547 185.586 557.383 976.25Zm0 0" transform="matrix(.1 0 0 -.1 0 195)"/><path style="stroke:none;fill-rule:nonzero;fill:#b39cc0;fill-opacity:1" d="m55.738 97.375 54.524 94.684 54.597-95.094"/><path style="fill:none;stroke-width:5.06092;stroke-linecap:round;stroke-linejoin:round;stroke:#000;stroke-opacity:1;stroke-miterlimit:10" d="m557.383 976.25 545.234-946.836 545.977 950.938Zm0 0" transform="matrix(.1 0 0 -.1 0 195)"/><path style="stroke:none;fill-rule:nonzero;fill:#e4781d;fill-opacity:1" d="M55.738 97.375 44.582 68.43l64.754-63.215"/><path style="fill:none;stroke-width:5.06092;stroke-linecap:round;stroke-linejoin:round;stroke:#000;stroke-opacity:1;stroke-miterlimit:10" d="M557.383 976.25 445.82 1265.703l647.54 632.149Zm0 0" transform="matrix(.1 0 0 -.1 0 195)"/><path style="stroke:none;fill-rule:nonzero;fill:#b282a0;fill-opacity:1" d="m164.86 96.965-109.122.41 53.598-92.16"/><path style="fill:none;stroke-width:5.06092;stroke-linecap:round;stroke-linejoin:round;stroke:#000;stroke-opacity:1;stroke-miterlimit:10" d="M1648.594 980.352 557.383 976.25l535.976 921.602Zm0 0" transform="matrix(.1 0 0 -.1 0 195)"/><path style="stroke:none;fill-rule:nonzero;fill:#000017;fill-opacity:1" d="m172.16 67.867 41.93 108.153-49.23-79.055"/><path style="fill:none;stroke-width:5.06092;stroke-linecap:round;stroke-linejoin:round;stroke:#000;stroke-opacity:1;stroke-miterlimit:10" d="m1721.602 1271.328 419.296-1081.523-492.304 790.547Zm0 0" transform="matrix(.1 0 0 -.1 0 195)"/><path style="stroke:none;fill-rule:nonzero;fill:#8f8dcc;fill-opacity:1" d="m110.262 192.059 103.828-16.04-49.23-79.054"/><path style="fill:none;stroke-width:5.06092;stroke-linecap:round;stroke-linejoin:round;stroke:#000;stroke-opacity:1;stroke-miterlimit:10" d="m1102.617 29.414 1038.281 160.39-492.304 790.548Zm0 0" transform="matrix(.1 0 0 -.1 0 195)"/><path style="stroke:none;fill-rule:nonzero;fill:#000010;fill-opacity:1" d="m172.16 67.867-7.3 29.098-55.524-91.75"/><path style="fill:none;stroke-width:5.06092;stroke-linecap:round;stroke-linejoin:round;stroke:#000;stroke-opacity:1;stroke-miterlimit:10" d="m1721.602 1271.328-73.008-290.976-555.235 917.5Zm0 0" transform="matrix(.1 0 0 -.1 0 195)"/><path style="stroke:none;fill-rule:nonzero;fill:#2e0000;fill-opacity:1" d="m108.246 178.621-103.191-2.18 105.207 15.618"/><path style="fill:none;stroke-width:5.06092;stroke-linecap:round;stroke-linejoin:round;stroke:#000;stroke-opacity:1;stroke-miterlimit:10" d="M1082.46 163.79 50.548 185.585l1052.07-156.172Zm0 0" transform="matrix(.1 0 0 -.1 0 195)"/><path style="stroke:none;fill-rule:nonzero;fill:#500000;fill-opacity:1" d="m108.246 178.621 105.844-2.601-103.828 16.039"/><path style="fill:none;stroke-width:5.06092;stroke-linecap:round;stroke-linejoin:round;stroke:#000;stroke-opacity:1;stroke-miterlimit:10" d="m1082.46 163.79 1058.438 26.015-1038.28-160.39Zm0 0" transform="matrix(.1 0 0 -.1 0 195)"/><path style="stroke:none;fill-rule:nonzero;fill:#a8bce8;fill-opacity:1" d="m44.582 68.43 127.578-.563-62.824-62.652"/><path style="fill:none;stroke-width:5.06092;stroke-linecap:round;stroke-linejoin:round;stroke:#000;stroke-opacity:1;stroke-miterlimit:10" d="m445.82 1265.703 1275.782 5.625-628.243 626.524Zm0 0" transform="matrix(.1 0 0 -.1 0 195)"/><path style="stroke:none;fill-rule:nonzero;fill:#8d6eaa;fill-opacity:1" d="m108.246 178.621-103.191-2.18L44.582 68.43"/><path style="fill:none;stroke-width:5.06092;stroke-linecap:round;stroke-linejoin:round;stroke:#000;stroke-opacity:1;stroke-miterlimit:10" d="M1082.46 163.79 50.548 185.585 445.82 1265.703Zm0 0" transform="matrix(.1 0 0 -.1 0 195)"/><path style="stroke:none;fill-rule:nonzero;fill:#d2a6ab;fill-opacity:1" d="m108.246 178.621 105.844-2.601-41.93-108.153"/><path style="fill:none;stroke-width:5.06092;stroke-linecap:round;stroke-linejoin:round;stroke:#000;stroke-opacity:1;stroke-miterlimit:10" d="m1082.46 163.79 1058.438 26.015-419.296 1081.523Zm0 0" transform="matrix(.1 0 0 -.1 0 195)"/><path style="stroke:none;fill-rule:nonzero;fill:#b39dc2;fill-opacity:1" d="m44.582 68.43 63.664 110.191L172.16 67.867"/><path style="fill:none;stroke-width:5.06092;stroke-linecap:round;stroke-linejoin:round;stroke:#000;stroke-opacity:1;stroke-miterlimit:10" d="M445.82 1265.703 1082.46 163.79l639.142 1107.54Zm0 0" transform="matrix(.1 0 0 -.1 0 195)"/></svg>
